icons/icn_chevron_small.svg

<svg width="24" xmlns="http://www.w3.org/2000/svg" height="24" id="screenshot-6b7f04f4-ed47-8061-8006-7fc944942736" viewBox="0 0 24 24" xmlns:xlink="http://www.w3.org/1999/xlink" fill="none" version="1.1"><g id="shape-6b7f04f4-ed47-8061-8006-7fc944942736"><g class="frame-container-wrapper"><g class="frame-container-blur"><g class="frame-container-shadows"><g fill="none"><g class="fills" id="fills-6b7f04f4-ed47-8061-8006-7fc944942736"><rect rx="0" ry="0" x="0" y="0" width="24" height="24.000000000000455" transform="matrix(1, 0, 0, 1, 0, 0)" class="frame-background"/></g><g class="frame-children"><g id="shape-6b7f04f4-ed47-8061-8006-7fd0ae720130" width="24" height="24" version="1.1" rx="0" ry="0" style="fill: rgb(0, 0, 0);"><g id="shape-6b7f04f4-ed47-8061-8006-7fd0ae720135" style="opacity: 1;"><g class="fills" id="fills-6b7f04f4-ed47-8061-8006-7fd0ae720135"><path d="M15.996142387390137,10.1353759765625C15.767382621765137,10.1343994140625,15.546679496765137,10.224853515625,15.383349418640137,10.3863525390625L12.002490043640137,13.774658203125L8.614306449890137,10.3863525390625C8.276415824890137,10.048095703125,7.727587699890137,10.048095703125,7.389697074890137,10.3863525390625C7.051074028015137,10.7249755859375,7.051074028015137,11.2730712890625,7.389697074890137,11.6116943359375L11.389697074890137,15.6126708984375C11.728564262390137,15.950927734375,12.277392387390137,15.950927734375,12.615283012390137,15.6126708984375L16.608692169189453,11.6116943359375C16.947559356689453,11.2730712890625,16.947559356689453,10.7249755859375,16.608692169189453,10.3863525390625C16.446338653564453,10.224853515625,16.225879669189453,10.1343994140625,15.996142387390137,10.1353759765625Z" style="display: inline; stroke-linecap: round; stroke-linejoin: round; fill: rgb(0, 0, 0); fill-opacity: 1;"/></g></g><g id="shape-6b7f04f4-ed47-8061-8006-7fd0ae720136" style="opacity: 1;"><g class="fills" id="fills-6b7f04f4-ed47-8061-8006-7fd0ae720136"><path d="M12.068896293640137,3.248046875C7.210741996765137,3.248046875,3.247607469558716,7.210693359375,3.247607469558716,12.0693359375C3.247607469558716,16.9281005859375,7.210741996765137,20.8834228515625,12.068896293640137,20.8834228515625C16.928028106689453,20.8834228515625,20.882862091064453,16.9281005859375,20.882862091064453,12.0693359375C20.882862091064453,7.210693359375,16.928028106689453,3.248046875,12.068896293640137,3.248046875ZM12.068896293640137,4.9827880859375C15.991503715515137,4.9827880859375,19.148242950439453,8.147705078125,19.148242950439453,12.0693359375C19.148242950439453,15.990966796875,15.991503715515137,19.148681640625,12.068896293640137,19.148681640625C8.147265434265137,19.148681640625,4.982226371765137,15.990966796875,4.982226371765137,12.0693359375C4.982226371765137,8.147705078125,8.147265434265137,4.9827880859375,12.068896293640137,4.9827880859375Z" style="display: inline; stroke-linecap: round; stroke-linejoin: round; fill: rgb(0, 0, 0); fill-opacity: 1;"/></g></g></g></g></g></g></g></g></g></svg>

<svg fill="none" viewBox="0 0 24 24"><g class="frame-container-wrapper"><g class="frame-container-blur"><g class="frame-container-shadows"><g class="fills"><rect width="24" height="24" class="frame-background" rx="0" ry="0"/></g><g fill="#000" class="frame-children"><path d="M15.9961 10.1354a.8674.8674 0 0 0-.6128.251l-3.3808 3.3883-3.3882-3.3883a.8658.8658 0 0 0-1.2246 0 .866.866 0 0 0 0 1.2253l4 4.001c.3389.3382.8877.3382 1.2256 0l3.9934-4.001a.8655.8655 0 0 0 0-1.2253.8634.8634 0 0 0-.6126-.251Z" class="fills"/><path d="M12.0689 3.248c-4.8582 0-8.8213 3.9627-8.8213 8.8213 0 4.8588 3.9631 8.8141 8.8213 8.8141 4.8591 0 8.814-3.9553 8.814-8.814 0-4.8587-3.9549-8.8214-8.814-8.8214Zm0 1.7348c3.9226 0 7.0793 3.165 7.0793 7.0865 0 3.9217-3.1567 7.0794-7.0793 7.0794-3.9216 0-7.0867-3.1577-7.0867-7.0794 0-3.9216 3.165-7.0865 7.0867-7.0865Z" class="fills"/></g></g></g></g></svg>
